X:1
T:Alnwick Castle
C:Traditional
M:3/4
L:1/4
Q:1/4=96
K:D
A | D3/2F/2E/2C/2 | D E F | G A B | A3/2G/2F/2D/2 | D3/2F/2E/2C/2 | D F A | G2 F | E A2 | D2 C | D E F | G A B | A2 c | d3/2c/2B | A F {G}A | G F E | D2 |]
